X: 1
T: the Brosna Slide
R: slide, jig
S: Fiddle Hell Online 2021-11-__ Matt Cranitch workshop
Z: 2021 John Chambers <jc:trillian.mit.edu>
M: 12/8
L: 1/8
K: G
|:\
(vD2G) G2(A B)uAvB (d2B) | vA2(D FED) A2(D FED) |\
vG3 G2(A B)AB (d2B) | A2(D FED) G3 G3 :|
|:\
vg2(f efg) (f2e) d2(vB | c)Bc (A2B) (c2d) (e2f) |\
vg2(f efg) f2e d2(vB | c2A) F2A G3 G3 :|


